X:1
T:Clydesdale, CMD
T:Clydesdale, CMD
T:John H. Kissinger, 1890
T:Public Domain Courtesy of the Cyber Hymnal™
C:John H. Kissinger, 1890
Z:Public Domain
Z:Courtesy of the Cyber Hymnal™
%%score 1 ( 2 3 )
L:1/8
Q:1/4=105
M:6/8
K:Bb
V:1 treble 
V:2 bass 
V:3 bass 
V:1
 [DF] | [DF]2 [DF] ([DB][EA])[FB] | [Ec]2 [Ec] [EG]2 [EG] | [DF]2 [DF] ([CA][DB])[Ec] | %4
 [DB]3- [DB]2 [DF] | [DF]2 [DF] ([DB][EA])[FB] | [Ec]2 [Ec] [EG]2 [Ge] | %7
 [Fd]2 [DB] ([CA][DB])[Ec] | [DB]3- [DB]2 [FB] | [FA]2 [FB] [Fc]2 [FA] | [FB]2 [Fc] [Fd]2 [DF] | %11
 [EG]2 [EG] [Ge]2 [Ec] | ([DB]3 [CA]2) [EF] | [DF]2 [DF] ([DB][EA])[FB] | [Ec]2 [Ec] [EG]2 [Ge] | %15
 [Fd]2 [DB] ([CA][DB])[Ec] | [DB]3- [DB]2 |] %17
V:2
 [B,,B,] | [B,,B,]2 [B,,B,] F,2 [D,B,] | [E,G,]2 [E,G,] [E,B,]2 [E,B,] | [F,B,]2 [F,B,] F,2 F, | %4
 [B,,F,]3- [B,,F,]2 [B,,B,] | [B,,B,]2 [B,,B,] F,2 [D,B,] | [E,G,]2 [E,G,] [E,B,]2 [E,B,] | %7
 [F,B,]2 [F,B,] F,2 F, | [B,,F,]3- [B,,F,]2 [D,B,] | [F,C]2 [F,D] [F,E]2 [E,C] | %10
 [D,B,]2 [C,A,] [B,,B,]2 [B,,B,] | [E,B,]2 [E,B,] [C,C]2 [E,G,] | F,3- F,2 [F,A,] | %13
 [B,,B,]2 [B,,B,] F,2 [D,B,] | [E,G,]2 [E,G,] [E,B,]2 [E,B,] | [F,B,]2 [F,B,] F,2 [F,,F,] | %16
 [B,,F,]3- [B,,F,]2 |] %17
V:3
 x | x3 (B,,C,) x | x6 | x3 F,2 F, | x6 | x3 (B,,C,) x | x6 | x3 F,2 F, | x6 | x6 | x6 | x6 | %12
 F,3- F,2 x | x3 (B,,C,) x | x6 | x3 F,2 x | x5 |] %17

